X:1
T:7
T:7
T:160 Kurze Übungen op. 821
T:Carl Czerny
C:Carl Czerny
%%score { 1 | ( 2 3 ) }
L:1/8
Q:1/4=146
M:4/4
K:F
V:1 treble nm="Piano" snm="Pno."
V:2 bass 
V:3 bass 
V:1
!p!"^Allegro vivace" (!1!c/!2!^c/!1!d/!2!^d/ !1!e/!2!f/!3!^f/!1!g/ !2!^g/!1!a/!2!b/!1!=b/ !2!=c'/!3!=d'/c'/d'/ | %1
 !2!c'4 .f') z z2 | %2
 (!4!f'/!3!e'/!2!_e'/!1!d'/ !3!_d'/!2!c'/!1!=b/!3!_b/ !1!a/!2!_a/!1!g/!2!^f/ !1!=f/!3!g/=a/!2!f/ | %3
 g4 .c) z z2 | %4
!p!"_cresc." (!1!c/!2!^c/!1!d/!2!^d/ !1!e/!2!f/!3!^f/!1!g/ !2!^g/!1!a/b/!1!=b/ !2!=c'/=d'/c'/d'/ | %5
 !2!c'4 .g') z z2 |!f!!8va(! (!4!b'/a'/g'/f'/ !3!e'/d'/c'/!4!b/!8va)! a/g/f/!3!e/ d/c/d/e/ | %7
 f) z !2!!5![ca] z !1!!4![Af] z z2 |] %8
V:2
 (!2!A,2 C2 A,2 C2 | A,2 C2 A,2 C2 | (A,2) C2 A,2 C2 | !2!B,2 !1!C2 B,2 C2 | (B,2) C2 B,2 C2 | %5
 B,2 C2 B,2 C2) | (!2!!1!G,2 B,2 G,2 B,2 | !1!A,) z z2 z2 z2 |] %8
V:3
 !4!F,8 | F,8 | F,8 | E,8 | E,8 | E,8 | !5!C,8 | !3!F, z !1!F, z F,, z z2 |] %8

